X: 4
T: Maid on the Green
R: Jig
M: 6/8
L: 1/8
K: G
|: B/c/d |\
gfg e2 d | Bge dBA | BGG dGG | BAA AB/c/d |
gfg e2 d | BeB dBA | BGG dBA | AGF G :|
|: B/c/d |\
|: gfg afd | gfg abc' | bag agf | gef g2 a |
[1 bg/a/b afa | gfg e2 d | BeB dBA | AGF G :|
[2 bc'b ac/b/a | gea gdB | GeB dBA | AGF G |]
